X:1
T: The Fishers' Reel o' Buckie
C:Hugh Inner
R:Reel
Q: 232
K:A
M:4/4
L:1/8
|:E2 AE cA ec|E2 cA BF FA|E2 AE cA ec|dB GB A1/2A1/2A A2|
E2 AE cA ec|E2 cA BF FA|E2 AE cA ec|dB GB A1/2A1/2A A2|
Ac ea fa ef|df ca BF FB|Ac ea fa ef|dB ec A1/2A1/2A A2|
Ac ea fa ef|df ca BF FB|AE cA dB ec|BA GB A1/2A1/2A A2:|
